application-parentheses.svg

<svg fill="currentColor" viewBox="0 0 24 24"><path d="M21 2H3c-1.1 0-2 .9-2 2v16c0 1.1.9 2 2 2h18c1.1 0 2-.9 2-2V4c0-1.1-.9-2-2-2M10 19.4l-1.6.6C6.9 18.6 6 16.6 6 14.5s.9-4.1 2.4-5.5l1.6.6c-1.3 1.1-2 3-2 4.9s.7 3.7 2 4.9m5.6.6-1.6-.6c1.3-1.2 2-3 2-4.9s-.7-3.7-2-4.9l1.6-.6c1.5 1.4 2.4 3.4 2.4 5.5s-.9 4.1-2.4 5.5M21 7H3V4h18z"/></svg>

<svg  viewBox="0 0 24 24" fill="currentColor"><path  d="M21 2H3C1.9 2 1 2.9 1 4V20C1 21.1 1.9 22 3 22H21C22.1 22 23 21.1 23 20V4C23 2.9 22.1 2 21 2M10 19.4L8.4 20C6.9 18.6 6 16.6 6 14.5S6.9 10.4 8.4 9L10 9.6C8.7 10.7 8 12.6 8 14.5S8.7 18.2 10 19.4M15.6 20L14 19.4C15.3 18.2 16 16.4 16 14.5S15.3 10.8 14 9.6L15.6 9C17.1 10.4 18 12.4 18 14.5C18 16.6 17.1 18.6 15.6 20M21 7H3V4H21V7Z"/></svg>
